build/images/icons/voice.svg

<svg width="40" height="40" viewBox="0 0 40 40" fill="none" xmlns="http://www.w3.org/2000/svg">
<path d="M13.3335 20.0869C16.6585 20.0869 19.1668 17.5786 19.1668 14.2536C19.1668 10.9286 16.6585 8.42022 13.3335 8.42022C10.0085 8.42022 7.50016 10.9286 7.50016 14.2536C7.50016 17.5786 10.0085 20.0869 13.3335 20.0869ZM15.0002 21.6669H11.6668C7.07183 21.6669 3.3335 25.4052 3.3335 30.0002V31.6669H23.3335V30.0002C23.3335 25.4052 19.5952 21.6669 15.0002 21.6669ZM30.6068 4.39355L28.2502 6.75022C30.4518 8.95522 31.6668 11.8852 31.6668 15.0002C31.6668 18.1152 30.4518 21.0452 28.2502 23.2502L30.6068 25.6069C33.4402 22.7719 35.0002 19.0052 35.0002 15.0002C35.0002 10.9952 33.4402 7.22855 30.6068 4.39355Z"/>
<path d="M25.8918 9.10645L23.5352 11.4664C24.4802 12.4081 25.0002 13.6631 25.0002 14.9998C25.0002 16.3364 24.4802 17.5914 23.5352 18.5331L25.8918 20.8931C27.4652 19.3198 28.3335 17.2281 28.3335 14.9998C28.3335 12.7714 27.4652 10.6798 25.8918 9.10645Z"/>
</svg>

<svg width="40" height="40" fill="none" xmlns="http://www.w3.org/2000/svg"><path d="M13.334 20.087c3.325 0 5.833-2.508 5.833-5.833S16.658 8.42 13.333 8.42c-3.325 0-5.833 2.509-5.833 5.834 0 3.325 2.508 5.833 5.834 5.833zM15 21.667h-3.333c-4.595 0-8.334 3.738-8.334 8.333v1.667h20V30c0-4.595-3.738-8.333-8.333-8.333zM30.607 4.394L28.25 6.75A11.604 11.604 0 0131.667 15c0 3.115-1.215 6.045-3.417 8.25l2.357 2.357A14.907 14.907 0 0035 15c0-4.005-1.56-7.771-4.393-10.606z"/><path d="M25.892 9.106l-2.357 2.36A4.954 4.954 0 0125 15c0 1.336-.52 2.591-1.465 3.533l2.357 2.36A8.278 8.278 0 0028.334 15c0-2.229-.869-4.32-2.442-5.894z"/></svg>
